dist/icons/svgs/clipboard-list-outline.svg

<svg xmlns="http://www.w3.org/2000/svg" width="24" height="24" fill="currentcolor" class="icon-clipboard-list-outline" viewBox="0 0 24 24">
  <path d="M17.5 4.5C18.8672 4.5 20 5.63281 20 7V19.5C20 20.9062 18.8672 22 17.5 22H7.5C6.09375 22 5 20.9062 5 19.5V7C5 5.63281 6.09375 4.5 7.5 4.5H9.0625H9.41406C9.72656 3.09375 10.9766 2 12.5 2C13.9844 2 15.2734 3.09375 15.5469 4.5H15.9375H17.5ZM8.125 6.375H7.5C7.14844 6.375 6.875 6.6875 6.875 7V19.5C6.875 19.8516 7.14844 20.125 7.5 20.125H17.5C17.8125 20.125 18.125 19.8516 18.125 19.5V7C18.125 6.6875 17.8125 6.375 17.5 6.375H16.875V7.3125C16.875 7.85938 16.4453 8.25 15.9375 8.25H12.5H9.0625C8.51562 8.25 8.125 7.85938 8.125 7.3125V6.375ZM11.5625 5.125C11.5625 5.67188 11.9531 6.0625 12.5 6.0625C13.0078 6.0625 13.4375 5.67188 13.4375 5.125C13.4375 4.61719 13.0078 4.1875 12.5 4.1875C11.9531 4.1875 11.5625 4.61719 11.5625 5.125ZM10.3125 12.625C10.3125 13.1719 9.88281 13.5625 9.375 13.5625C8.82812 13.5625 8.4375 13.1719 8.4375 12.625C8.4375 12.1172 8.82812 11.6875 9.375 11.6875C9.88281 11.6875 10.3125 12.1172 10.3125 12.625ZM11.875 12H15.625C15.9375 12 16.25 12.3125 16.25 12.625C16.25 12.9766 15.9375 13.25 15.625 13.25H11.875C11.5234 13.25 11.25 12.9766 11.25 12.625C11.25 12.3125 11.5234 12 11.875 12ZM11.875 15.75H15.625C15.9375 15.75 16.25 16.0625 16.25 16.375C16.25 16.7266 15.9375 17 15.625 17H11.875C11.5234 17 11.25 16.7266 11.25 16.375C11.25 16.0625 11.5234 15.75 11.875 15.75ZM9.375 17.3125C8.82812 17.3125 8.4375 16.9219 8.4375 16.375C8.4375 15.8672 8.82812 15.4375 9.375 15.4375C9.88281 15.4375 10.3125 15.8672 10.3125 16.375C10.3125 16.9219 9.88281 17.3125 9.375 17.3125Z"/>
</svg>

<svg xmlns="http://www.w3.org/2000/svg" width="24" height="24" fill="currentColor" class="icon-clipboard-list-outline" viewBox="0 0 24 24">
  <path d="M17.5 4.5C18.867 4.5 20 5.633 20 7v12.5c0 1.406-1.133 2.5-2.5 2.5h-10A2.47 2.47 0 0 1 5 19.5V7c0-1.367 1.094-2.5 2.5-2.5h1.914C9.727 3.094 10.977 2 12.5 2c1.484 0 2.773 1.094 3.047 2.5zM8.125 6.375H7.5A.64.64 0 0 0 6.875 7v12.5c0 .352.273.625.625.625h10a.64.64 0 0 0 .625-.625V7c0-.312-.312-.625-.625-.625h-.625v.938c0 .546-.43.937-.937.937H9.063c-.547 0-.938-.39-.938-.937zm3.438-1.25c0 .547.39.938.937.938a.926.926 0 0 0 .938-.938.95.95 0 0 0-.938-.937.925.925 0 0 0-.937.937m-1.25 7.5c0 .547-.43.938-.938.938-.547 0-.937-.391-.937-.938 0-.508.39-.937.937-.937a.95.95 0 0 1 .938.937M11.875 12h3.75c.313 0 .625.313.625.625a.64.64 0 0 1-.625.625h-3.75a.617.617 0 0 1-.625-.625c0-.312.273-.625.625-.625m0 3.75h3.75c.313 0 .625.313.625.625a.64.64 0 0 1-.625.625h-3.75a.617.617 0 0 1-.625-.625c0-.312.273-.625.625-.625m-2.5 1.563c-.547 0-.937-.391-.937-.938 0-.508.39-.937.937-.937a.95.95 0 0 1 .938.937c0 .547-.43.938-.938.938"/>
</svg>
